X: 251
T: Major Hedleys Quick March
C: Abraham Mackintosh
R: march
M: 2/4
L: 1/8
Z: 2011 John Chambers <jc:trillian.mit.edu>
B: Abraham Mackintosh "A Collection of Strathspeys, Reels, Jigs &c.", Newcastle, after 1797, p.25
F: http://imslp.info/files/imglnks/usimg/a/a8/IMSLP80796-PMLP164326-Abraham_Mackintosh_coll.pdf
K: F
V: 1
F/G/ |\
AAEF | FF/G/ Ac | c2gf | (f2e)G | FA2F | F2CD | [EG,][E2G,2][EG,] | FAA :|
z |\
c3A | G4 | A3F | E4 | F3D | CA,CF | F2EF | F2E2 |
c3A | G4 | A3F | E4 | F3D | CA2B | {B}AG/F/ {A}GF/E/ | FCA, |]
V: 2
A/B/ |\
cccc | d/c/d/e/ ff | efba | (a2g)B | A{B}c {d}c{B}A | B{c}d {e}fg/f/ | egcb | aff :|
c |\
f>gaf | gec2 | d>efd | ecA2 | B>cdB | Acfc | edBA | A2G2 |
f>gaf | gec2 | d>efd | ecA2 | B>c {d}dc/B/ | Ac {e}fe/d/ | {d}cB/A/ {c}BA/G/ | F3 |]
V: 3 clef=bass middle=d
z |\
zfga | b2a2 | baef | c'c c'e | fF f_e | dBAB | c2C2 | FfF :|
z |\
a2f2 | c'2e2 | f2d2 | a2c2 | d2B2 | f2a2 | bagf | c'cc'b |
a2f2 | c'2e2 | f2d2 | a2c2 | d2B2 | f2dB | c2C2 | f2F |]

%%sep 2 1 500

